X: 6
T:Ton Simpl Gavotte #2 (Suite 1)
M:12/8
L:1/8
S:Yann Dour
R:Gavotte
K:G
BdB G2  G A2  B cdc|B2  c d2  c B3   B3  |BdB G2  G A2  B cdc|B2  c d2
c B3   B2  ||!
d|d2  c B2  G A2  B cdc|A2  c F2  A G3   G2  d|d2  c B2  G A2  B cdc|A2
 c F2  A G3   G3  ||
